packages/kaspersky-hexa-ui-icons/src/iconsSVGs/16x12/FlagCy.svg

<svg width="16" height="12" viewBox="0 0 16 12" fill="none" xmlns="http://www.w3.org/2000/svg">
<g clip-path="url(#clip0_41813_1899)">
<rect x="0.25" y="0.25" width="15.5" height="11.5" rx="1.75" fill="white" stroke="#F5F5F5" stroke-width="0.5"/>
<mask id="mask0_41813_1899" style="mask-type:luminance" maskUnits="userSpaceOnUse" x="0" y="0" width="16" height="12">
<rect x="0.25" y="0.25" width="15.5" height="11.5" rx="1.75" fill="white" stroke="white" stroke-width="0.5"/>
</mask>
<g mask="url(#mask0_41813_1899)">
<path fill-rule="evenodd" clip-rule="evenodd" d="M11.4286 1.99998C11.6369 1.89064 11.8553 2.12786 11.7292 2.32644L11.4672 2.73923C11.4417 2.77933 11.4086 2.814 11.3696 2.84124L10.3287 3.56991C10.3001 3.58991 10.2736 3.61269 10.2496 3.63794C10.0565 3.84068 10.0565 4.15927 10.2496 4.36202L10.2857 4.39998C10.4991 4.62398 10.4991 4.97598 10.2857 5.19998L10.1544 5.33787C10.0067 5.49299 9.77397 5.5313 9.58431 5.43173C9.34335 5.30522 9.04553 5.4044 8.92852 5.65012L8.87091 5.77109C8.80116 5.91757 8.67578 6.03013 8.52264 6.08373L7.726 6.36255C7.65522 6.38732 7.58076 6.39998 7.50577 6.39998H7.19192C6.98742 6.39998 6.80115 6.51759 6.71323 6.70222C6.58385 6.97393 6.25453 7.08359 5.98808 6.94371L5.04957 6.45099C4.98522 6.41721 4.92683 6.37313 4.8767 6.3205L4.34813 5.76549C4.24693 5.65924 4.19049 5.51813 4.19049 5.3714V5.06664C4.19049 4.91937 4.30988 4.79998 4.45716 4.79998C4.53014 4.79998 4.59993 4.77007 4.65026 4.71722L5.13926 4.20376C5.2632 4.07363 5.43506 3.99998 5.61477 3.99998C5.90088 3.99998 6.15406 3.81472 6.24064 3.54201L6.29379 3.37459C6.39736 3.04833 6.73121 2.85353 7.06621 2.92388L8.22693 3.16763C8.32823 3.1889 8.43309 3.18629 8.53321 3.16001L9.83136 2.81925C9.88015 2.80644 9.92732 2.78814 9.97198 2.76469L10.6667 2.39998L11.4286 1.99998Z" fill="#E7832C"/>
<ellipse cx="7.99997" cy="9.19999" rx="0.380952" ry="0.4" fill="#445128"/>
<path opacity="0.75" d="M9.14288 8.79998C9.14288 8.79998 10.2857 8.39998 10.6667 7.59998" stroke="#445128" stroke-linecap="round"/>
<path opacity="0.75" d="M6.85712 8.79998C6.85712 8.79998 5.71426 8.39998 5.33331 7.59998" stroke="#445128" stroke-linecap="round"/>
</g>
</g>
<defs>
<clipPath id="clip0_41813_1899">
<rect width="16" height="12" fill="white"/>
</clipPath>
</defs>
</svg>

<svg xmlns="http://www.w3.org/2000/svg" width="16" height="12" fill="none" viewBox="0 0 16 12"><g clip-path="url(#a)"><rect width="16" height="12" fill="#fff" stroke="#f5f5f5" rx="2"/><mask id="b" width="16" height="12" x="0" y="0" maskUnits="userSpaceOnUse" style="mask-type:luminance"><rect width="16" height="12" fill="#fff" stroke="#fff" rx="2"/></mask><g mask="url(#b)"><path fill="#e7832c" fill-rule="evenodd" d="M11.4286 2c.2083-.1094.4267.1279.3006.3264l-.262.4128a.36.36 0 0 1-.0976.102l-1.0409.7287a.525.525 0 0 0-.0791.7921l.0361.038a.58.58 0 0 1 0 .8l-.1313.1379a.4795.4795 0 0 1-.57.0938.4795.4795 0 0 0-.6559.2184l-.0576.121a.608.608 0 0 1-.3483.3126l-.7966.2788a.67.67 0 0 1-.2202.0375h-.3139a.53.53 0 0 0-.4787.3022.53.53 0 0 1-.7251.2415l-.9385-.4927a.67.67 0 0 1-.1729-.1305l-.5286-.555a.57.57 0 0 1-.1576-.3941v-.3048A.2667.2667 0 0 1 4.4572 4.8c.073 0 .1427-.03.193-.0828l.489-.5134A.657.657 0 0 1 5.6149 4a.657.657 0 0 0 .6258-.458l.0532-.1674a.6667.6667 0 0 1 .7724-.4507l1.1607.2437a.67.67 0 0 0 .3063-.0076l1.2982-.3408a.67.67 0 0 0 .1406-.0545l.6947-.3647z" clip-rule="evenodd"/><path stroke="#445128" stroke-linecap="round" d="M9.143 8.8s1.143-.4 1.524-1.2m-3.81 1.2s-1.143-.4-1.524-1.2"/></g></g><defs><clipPath id="a"><path fill="#fff" d="M0 0h16v12H0z"/></clipPath></defs></svg>
